!!!OTL: Die Schlangenkoechin.
!!!OTL-incipit: 'Kind, wo bist du denn henne west?'
!!!ARE: Europa, Mitteleuropa, Deutschland (BRD), Westfalen
!!!YOR: 4, S. 206
!!    1866 aufgezeichnet
!!!SCT: Q0079I
!!!YEM: Copyright 1995, estate of Helmut Schaffrath.
**kern	**text
*ICvox	*
*M4/4	*
*met(c)	*
*k[f#c#]	*
*D:	*
=1	=1
!LO:TX:a:t=Weitſalen 1866	!
{4d	'Kind,
8dL	wo
8eJ	.
4f#	biſt
8f#	du
8g	denn
=2	=2
4a	hen-
4b	-ne
4a}	weſt?'
{8dL	Jn
8f#J	.
=3	=3
4a	ju-
4a	-er
4b	S(ch)eſters
4a	.
=4	=4
2g	Hu-
4f#}	-ſe!
{4a	'Wat
=5	=5
4e	hett
8e	ſe
8e	dy
4f#	do
4a	denn
=6	=6
2g	gi-
4f#}	-wen?'
{4e	En
=7	=7
4f#	Stückliken
4f#	.
4gL	van-
8aJ	-nem
8b	.
=8	=8
2b	Fi-
2a}	-ſche.
=9	=9
{4e	Steff-
8e	-meume,
8e	.
4f#	ku-
4b	-met
=10	=10
2a}	hy!
{2g	O
=11	=11
2f#	weih!
2b	o
=12	=12
2.a}	weih!
{4f#	ver-
=13	=13
8a	-gi-
8a	-wen
8g	hett
8g	ſe
2f#}	my!
==	==
!!!AGN: Ballade, Mord; Reigen - Tanz, antiphonal
!! Die letzten beiden Zeilen = Refrain.
!!!ONB: ESAC (Essen Associative Code) Database: BALLADE
!!!AMT: simple quadruple
!!!AIN: vox
!!!EED: Helmut Schaffrath
!!!EEV: 1.0
!!!source: Deutsche Volkslieder mit ihren Melodien. Herausgegeben vom Deutschen Volksliedarchiv. Vierter Band. Berlin 1959.
!!!page: 206
!!!ENC: Anna Maria Matuszewska
!!!EEV: 2025/02/25
*-	*-
